src/icons/scalable/actions/proprietary-code-symbolic.svg

<?xml version="1.0" encoding="UTF-8"?>
<!--
  SPDX-License-Identifier: CC0-1.0
  SPDX-FileCopyrightText: 2024 GNOME Foundation, Inc.
-->
<svg width="16" height="16" version="1.1" xmlns="http://www.w3.org/2000/svg">
 <path d="m4.9844 0.0019531c-1.6447 0-3 1.3553-3 3v9c0 1.6447 1.3553 3 3 3h2.0156v-2h-2.0156c-0.57129 0-1-0.4287-1-1v-9c0-0.5713 0.42871-1 1-1h4v1.5c0 1 0.5 1.5 1.5 1.5h1.5v0.99805h2v-1.498c-5.1e-5 -0.2652-0.10543-0.51952-0.29297-0.70703l-3.5-3.5c-0.18751-0.18754-0.44183-0.29292-0.70703-0.29297h-4.5zm0.03125 2.998v1h3v-1h-3zm0 2v1h1.9844 1.0156v-1h-3zm6.9844 1.9941c-0.51812 0-1.0362 0.1346-1.5 0.40234-0.92637 0.53485-1.4986 1.5243-1.5 2.5938v0.0039062 1.0059c-0.55588 0.0173-1 0.46515-1 1.0254v2.9688c0 0.5225 0.50255 1 1 1h6c0.51481 0 1-0.45904 1-1v0.17383c0.01922-0.11219 0.01919-0.2257 0-0.33789v-2.8047c0-0.56024-0.44412-1.008-1-1.0254v-1.0098c-1e-3 -1.0695-0.57363-2.0589-1.5-2.5938-0.46375-0.26774-0.98188-0.40234-1.5-0.40234zm-6.9844 0.0058594v1h2.9844v-1h-2.9844zm6.9844 1.6367c0.25203 0 0.50427 0.064703 0.73047 0.19531 0.45239 0.26119 0.73047 0.74326 0.73047 1.2656v0.89648h-2.9219v-0.89648-0.003906c1e-3 -0.52125 0.27892-1.001 0.73047-1.2617 0.2262-0.1305 0.47844-0.19531 0.73047-0.19531zm-6.9844 0.36328v1h1.9844v-1h-1.9844zm0 2v1h1.9844v-1h-1.9844z"/>
</svg>

<svg xmlns="http://www.w3.org/2000/svg" width="16" height="16"><path d="M4.984.002c-1.644 0-3 1.355-3 3v9c0 1.645 1.356 3 3 3H7v-2H4.984c-.57 0-1-.429-1-1v-9c0-.571.43-1 1-1h4v1.5q0 1.5 1.5 1.5h1.5V6h2V4.502a1 1 0 0 0-.293-.707l-3.5-3.5a1 1 0 0 0-.707-.293zM5.016 3v1h3V3zm0 2v1h3V5zM12 6.994A3 3 0 0 0 9 9.99V11c-.556.017-1 .465-1 1.025v2.97c0 .522.503 1 1 1h6c.515 0 1-.46 1-1v.173a1 1 0 0 0 0-.338v-2.805c0-.56-.444-1.008-1-1.025V9.99a3 3 0 0 0-3-2.996M5.016 7v1H8V7zM12 8.637a1.46 1.46 0 0 1 1.461 1.46v.897h-2.922v-.9A1.46 1.46 0 0 1 12 8.637M5.016 9v1H7V9zm0 2v1H7v-1z"/></svg>
